X: 1
T: Gan Ainm
M: 4/4
L: 1/8
R: reel
K: Amin
|eAAB cBcd|eAAB ~c3d|eAAB cBcA|GDGA BABd:|
|eaag ageg|eaag ~a3g|eaag agBA|GDGA BABd:|
